X:102
T:Acrobat, The
R:hornpipe
H:Original key Bb
Z:id:hn-hornpipe-102
M:C|
L:1/8
K:D
AG|FAde fdba|(3gec (3gec c'2c'b|a^g=ge cc'ba|^gaba fdAG|
FAde fdba|(3gec (3gec c'2c'b|a^g=ge cc'bc|d2f2 d2:|
|:ed|cefe c'a^ga|f^efb d'b^ab|^ge^de =f^f=g^g|(3ac'b (3a^gf ef (3e_ed|
cefe c'a^ga|f^efb d'b^ab|^ge^de =f^f=g^g|(3aba ^gb a2:|

